resources/svg/right-arrow.svg

<svg xmlns="http://www.w3.org/2000/svg" width="22" height="22" viewBox="0 0 14 14" fill="none">
    <path d="M0 2C0 0.89543 0.895431 0 2 0H12C13.1046 0 14 0.895431 14 2V12C14 13.1046 13.1046 14 12 14H2C0.89543 14 0 13.1046 0 12V2Z" fill="#E5EAF4"/>
    <path d="M5.84753 4.65633C5.77826 4.65481 5.71024 4.67489 5.65292 4.71381C5.5956 4.75273 5.55183 4.80857 5.5277 4.87352C5.50357 4.93847 5.50028 5.00931 5.51828 5.07621C5.53627 5.14312 5.57467 5.20273 5.62813 5.2468L7.66784 6.9942L5.62813 8.74098C5.59115 8.76815 5.56018 8.80266 5.53716 8.84236C5.51414 8.88206 5.49956 8.9261 5.49435 8.9717C5.48913 9.01729 5.49339 9.06347 5.50684 9.10734C5.5203 9.15122 5.54267 9.19185 5.57256 9.22668C5.60244 9.26151 5.6392 9.28976 5.68052 9.30973C5.72184 9.32969 5.76684 9.34091 5.8127 9.34268C5.85856 9.34445 5.90429 9.33675 5.94703 9.32003C5.98977 9.30331 6.02859 9.27794 6.06107 9.24552L8.39636 7.24745C8.43303 7.21615 8.46248 7.17731 8.48267 7.13353C8.50286 7.08975 8.51332 7.0421 8.51332 6.99389C8.51332 6.94568 8.50286 6.89803 8.48267 6.85425C8.46248 6.81047 8.43303 6.77159 8.39636 6.74029L6.06107 4.7403C6.00208 4.6879 5.92641 4.65811 5.84753 4.65625V4.65633Z" fill="#242424"/>
</svg>

<svg xmlns="http://www.w3.org/2000/svg" width="22" height="22" viewBox="0 0 14 14" fill="none"><path d="M0 2C0 .9.9 0 2 0h10a2 2 0 0 1 2 2v10a2 2 0 0 1-2 2H2a2 2 0 0 1-2-2V2Z" fill="#E5EAF4"/><path d="M5.8 4.7a.3.3 0 0 0-.2.5l2 1.8-2 1.7a.3.3 0 1 0 .5.5l2.3-2a.3.3 0 0 0 0-.5l-2.3-2h-.3Z" fill="#242424"/></svg>
